frontend/src/assets/alertTrianglePrimary.svg

<svg width="67" height="64" viewBox="0 0 67 64" fill="none" xmlns="http://www.w3.org/2000/svg">
<path d="M36.2815 48.9648C36.2815 49.7176 35.9874 50.4396 35.4639 50.9719C34.9404 51.5042 34.2304 51.8032 33.49 51.8032C32.7497 51.8032 32.0397 51.5042 31.5162 50.9719C30.9927 50.4396 30.6986 49.7176 30.6986 48.9648C30.6986 48.212 30.9927 47.4901 31.5162 46.9578C32.0397 46.4255 32.7497 46.1264 33.49 46.1264C34.2304 46.1264 34.9404 46.4255 35.4639 46.9578C35.9874 47.4901 36.2815 48.212 36.2815 48.9648ZM31.3964 39.74C31.3964 40.3046 31.617 40.8461 32.0096 41.2453C32.4023 41.6445 32.9348 41.8688 33.49 41.8688C34.0453 41.8688 34.5778 41.6445 34.9704 41.2453C35.363 40.8461 35.5836 40.3046 35.5836 39.74V21.2905C35.5836 20.7259 35.363 20.1844 34.9704 19.7852C34.5778 19.3859 34.0453 19.1617 33.49 19.1617C32.9348 19.1617 32.4023 19.3859 32.0096 19.7852C31.617 20.1844 31.3964 20.7259 31.3964 21.2905V39.74ZM26.7682 4.03301C29.6881 -1.34292 37.292 -1.34575 40.2118 4.03301L66.0328 51.5761C68.8577 56.7789 65.1562 63.1568 59.3137 63.1568H7.68866C1.84615 63.1568 -1.8581 56.7817 0.966848 51.579L26.7682 4.03301ZM36.5439 6.09084C36.2422 5.53594 35.7999 5.07337 35.2628 4.75125C34.7257 4.42913 34.1136 4.25923 33.49 4.25923C32.8665 4.25923 32.2543 4.42913 31.7173 4.75125C31.1802 5.07337 30.7378 5.53594 30.4362 6.09084L4.63202 53.6368C4.33875 54.1771 4.18915 54.7859 4.19801 55.403C4.20686 56.0201 4.37387 56.6241 4.68252 57.1555C4.99118 57.6869 5.43081 58.1272 5.958 58.433C6.4852 58.7388 7.08172 58.8995 7.68866 58.8992H59.3109C59.9177 58.899 60.5138 58.738 61.0406 58.432C61.5674 58.126 62.0067 57.6856 62.315 57.1543C62.6233 56.623 62.7901 56.0191 62.7988 55.4023C62.8076 54.7854 62.658 54.1769 62.3648 53.6368L36.5439 6.09084Z" fill="#7361DF"/>
</svg>

<svg xmlns="http://www.w3.org/2000/svg" width="67" height="64" fill="none"><path fill="#7361DF" d="M36.282 48.965c0 .753-.295 1.475-.818 2.007a2.77 2.77 0 0 1-1.974.831c-.74 0-1.45-.299-1.974-.831a2.86 2.86 0 0 1-.817-2.007c0-.753.294-1.475.817-2.007a2.77 2.77 0 0 1 1.974-.832c.74 0 1.45.3 1.974.832.523.532.818 1.254.818 2.007m-4.886-9.225c0 .565.221 1.106.614 1.505.392.4.925.624 1.48.624s1.088-.224 1.48-.624c.393-.399.614-.94.614-1.505V21.29c0-.564-.221-1.106-.614-1.505a2.08 2.08 0 0 0-1.48-.623c-.555 0-1.088.224-1.48.623-.393.4-.614.94-.614 1.506zM26.768 4.033c2.92-5.376 10.524-5.379 13.444 0l25.82 47.543c2.826 5.203-.876 11.58-6.718 11.58H7.689c-5.843 0-9.547-6.374-6.722-11.577zm9.776 2.058a3.5 3.5 0 0 0-1.281-1.34 3.45 3.45 0 0 0-3.546 0c-.537.322-.98.785-1.28 1.34L4.631 53.637a3.6 3.6 0 0 0 .05 3.519c.31.53.749.971 1.276 1.277a3.45 3.45 0 0 0 1.73.466h51.623c.607 0 1.203-.161 1.73-.467a3.5 3.5 0 0 0 1.274-1.278 3.59 3.59 0 0 0 .05-3.517z"/></svg>
